svg/24/camera-frame-preset-check.svg

<svg width="24" height="24" viewBox="0 0 24 24" fill="currentColor" xmlns="http://www.w3.org/2000/svg"><path d="M2 2.75C2 2.33579 2.33579 2 2.75 2H5.25C5.66421 2 6 2.33579 6 2.75C6 3.16421 5.66421 3.5 5.25 3.5H3.5V5.25C3.5 5.66421 3.16421 6 2.75 6C2.33579 6 2 5.66421 2 5.25V2.75Z"/><path d="M2 21.25V18.75C2 18.3358 2.33579 18 2.75 18C3.16421 18 3.5 18.3358 3.5 18.75L3.5 20.5H5.25C5.66421 20.5 6 20.8358 6 21.25C6 21.6642 5.66421 22 5.25 22H2.75C2.55109 22 2.36032 21.921 2.21967 21.7803C2.07902 21.6397 2 21.4489 2 21.25Z"/><path d="M22 2.75V5.25C22 5.66421 21.6642 6 21.25 6C20.8358 6 20.5 5.66421 20.5 5.25V3.5L18.75 3.5C18.3358 3.5 18 3.16421 18 2.75C18 2.33579 18.3358 2 18.75 2H21.25C21.6642 2 22 2.33579 22 2.75Z"/><path d="M17 6.5H15V11.4982C14.4591 11.7237 13.9552 12.0203 13.5 12.3762V6.5H7C6.72386 6.5 6.5 6.72386 6.5 7V13.5H12.3762C12.0203 13.9552 11.7237 14.4591 11.4982 15H6.5V17C6.5 17.2761 6.72386 17.5 7 17.5H11C11 18.0163 11.0602 18.5185 11.1739 19H7C5.89543 19 5 18.1046 5 17V7C5 5.89543 5.89543 5 7 5H17C18.1046 5 19 5.89543 19 7V11.1739C18.5185 11.0602 18.0163 11 17.5 11V7C17.5 6.72386 17.2761 6.5 17 6.5Z"/><path fill-rule="evenodd" clip-rule="evenodd" d="M17.5 23C20.5376 23 23 20.5376 23 17.5C23 14.4624 20.5376 12 17.5 12C14.4624 12 12 14.4624 12 17.5C12 20.5376 14.4624 23 17.5 23ZM20.3536 16.3536C20.5488 16.1583 20.5488 15.8417 20.3536 15.6464C20.1583 15.4512 19.8417 15.4512 19.6464 15.6464L16.5 18.7929L14.8536 17.1464C14.6583 16.9512 14.3417 16.9512 14.1464 17.1464C13.9512 17.3417 13.9512 17.6583 14.1464 17.8536L16.1464 19.8536C16.2402 19.9473 16.3674 20 16.5 20C16.6326 20 16.7598 19.9473 16.8536 19.8536L20.3536 16.3536Z"/></svg>

<svg xmlns="http://www.w3.org/2000/svg" width="24" height="24" fill="currentColor" viewBox="0 0 24 24">
  <path d="M2 2.75A.75.75 0 0 1 2.75 2h2.5a.75.75 0 0 1 0 1.5H3.5v1.75a.75.75 0 0 1-1.5 0v-2.5Zm0 18.5v-2.5a.75.75 0 0 1 1.5 0v1.75h1.75a.75.75 0 0 1 0 1.5h-2.5a.75.75 0 0 1-.75-.75Zm20-18.5v2.5a.75.75 0 0 1-1.5 0V3.5h-1.75a.75.75 0 0 1 0-1.5h2.5a.75.75 0 0 1 .75.75ZM17 6.5h-2v4.998a6.491 6.491 0 0 0-1.5.878V6.5H7a.5.5 0 0 0-.5.5v6.5h5.876a6.52 6.52 0 0 0-.878 1.5H6.5v2a.5.5 0 0 0 .5.5h4c0 .516.06 1.018.174 1.5H7a2 2 0 0 1-2-2V7a2 2 0 0 1 2-2h10a2 2 0 0 1 2 2v4.174A6.52 6.52 0 0 0 17.5 11V7a.5.5 0 0 0-.5-.5Z"/>
  <path fill-rule="evenodd" d="M17.5 23a5.5 5.5 0 1 0 0-11 5.5 5.5 0 0 0 0 11Zm2.854-6.646a.5.5 0 0 0-.708-.708L16.5 18.793l-1.646-1.647a.5.5 0 0 0-.708.708l2 2a.5.5 0 0 0 .708 0l3.5-3.5Z" clip-rule="evenodd"/>
</svg>
